X:13908
T:Rakes of Clonmel
Z: id:dc-jig-163
M:6/8
L:1/8
K:A Dorian
B|cBA GED|EAA A2B|cBA edc|BGG Gef|!
gfg ege|dBG Bcd|ecA GED|EAA A2:|!
a|aea aed|cAA A2a|gea gdc|BGG GAB|!
cBc dcd|edc Bcd|ecA GED|EAA A2:|!
G|Aaa a^ga|bge e2f|gfg bge|dBG GAB|!
cBc dcd|edc Bcd|ecA GED|EAA A2:|!
